assets/svg/flag-o.svg

<?xml version="1.0" encoding="UTF-8"?>
<svg width="1000px" height="1000px" viewBox="0 0 1000 1000" version="1.1" xmlns="http://www.w3.org/2000/svg" xmlns:xlink="http://www.w3.org/1999/xlink">
    <!-- Generator: sketchtool 52.4 (67378) - http://www.bohemiancoding.com/sketch -->
    <title>flag-o</title>
    <desc>Created with sketchtool.</desc>
    <g id="新版图标" stroke="none" stroke-width="1" fill="none" fill-rule="evenodd">
        <g id="flag-o" fill="#323233" fill-rule="nonzero">
            <g id="直角-消息类型－维权消息">
                <path d="M698.394,376.236598 C660.051805,366.132809 629.459759,349.246638 592.500133,321.596758 C585.495409,316.356451 578.742896,311.131812 565.936411,301.158608 C524.147028,268.774476 500.061328,254.603104 464.545006,244.868458 C425.676791,234.215094 385.00013,229.905699 342.263938,231.991671 L268.705589,506.513262 C315.136942,505.112414 359.366195,509.564203 401.305889,519.984884 C444.376223,530.686493 476.035418,549.296533 516.098271,581.920398 C520.935322,585.859291 525.803961,589.90314 534.911199,597.491827 C575.983723,631.595672 598.988626,645.349005 636.41735,654.033393 C667.073141,661.146294 689.748306,662.337418 705.139933,659.472865 L777.838199,388.159243 C751.314725,387.170719 724.804073,383.19608 698.394,376.236598 Z M251.323856,572.253315 L173.624276,855.985471 L111.111111,838.866345 L181.617391,581.401647 C181.589469,581.406969 181.561547,581.412294 181.533623,581.41762 L279.657663,215.216254 C286.947232,188.011213 310.97173,168.627659 339.102958,167.254331 C388.598049,164.838049 436.123111,169.872983 481.678147,182.359133 C590.666968,212.231809 627.596117,290.552766 714.909937,313.561372 C764.880689,326.729474 814.833047,326.929588 864.767011,314.161715 L759.882983,705.594235 C729.286461,727.576985 683.248091,731.435895 621.767873,717.170966 C505.948991,690.298123 478.140853,605.861502 385.676688,582.887096 C343.992504,572.529901 299.208227,568.985307 251.323856,572.253315 Z" id="直角-消息类型－维权消息-线"></path>
            </g>
        </g>
    </g>
</svg>

<svg width="1000" height="1000" xmlns="http://www.w3.org/2000/svg"><path d="M698.394 376.237c-38.342-10.104-68.934-26.99-105.894-54.64-7.005-5.24-13.757-10.465-26.564-20.438-41.789-32.385-65.875-46.556-101.391-56.29-38.868-10.654-79.545-14.963-122.281-12.877l-73.558 274.521c46.43-1.4 90.66 3.051 132.6 13.472 43.07 10.701 74.73 29.312 114.792 61.935 4.837 3.94 9.706 7.983 18.813 15.572 41.073 34.104 64.078 47.857 101.506 56.541 30.656 7.113 53.331 8.304 68.723 5.44l72.698-271.314c-26.523-.988-53.034-4.963-79.444-11.922zm-447.07 196.016l-77.7 283.732-62.513-17.119 70.506-257.464-.083.016 98.124-366.202c7.29-27.205 31.314-46.588 59.445-47.962 49.495-2.416 97.02 2.619 142.575 15.105 108.989 29.873 145.918 108.194 233.232 131.202 49.97 13.168 99.923 13.369 149.857.6L759.883 705.595c-30.597 21.983-76.635 25.842-138.115 11.577-115.819-26.873-143.627-111.31-236.091-134.284-41.684-10.357-86.469-13.902-134.353-10.634z" fill="#323233" fill-rule="nonzero"/></svg>
